X: 8
T: Humours Of Drinagh, The
Z: Edgar Bolton
S: https://thesession.org/tunes/413#setting46063
R: jig
M: 6/8
L: 1/8
K: Dmaj
|:"D"FDF ABc|"D"dfd "A"ecA|"D"FDF ABc|"D"dAF "G"~G3|
"D"FDF ABc|"D"dfd "A"ecA|"D"~f3 "G"~g3|1 "A"edc "D"d2A:|2 "A"edc "D"d2e||
|:"D"fef "G"gfg|"D"agf "G"gfe|"D"fef "G"gfg|"D"agf "G"~g3|
"D"agf "G"gfe|"D"fed "A"ecA|"D"~f3 "G"~g3|"A"edc "D"d3:|

